contributed-vectors/adobe_ps_camera.svg

<svg xmlns="http://www.w3.org/2000/svg" width="192" height="192" fill="none"><g clip-path="url(#a)"><path fill="#4A4A4A" stroke="#9ABEFF" stroke-width="10" d="M30 25h132c2.76 0 5 2.24 5 5v132c0 2.76-2.24 5-5 5H30c-2.76 0-5-2.24-5-5V30c0-2.76 2.24-5 5-5Z"/><path fill="#9ABEFF" d="M92.02 82.44H80.55v27h5.94V98.51h5.53c4.54 0 8.06-3.38 8.06-7.92 0-4.51-3.51-8.15-8.06-8.15Zm-.94 11.16h-4.59v-5.94h4.59c1.89 0 3.33 1.21 3.33 2.97 0 1.8-1.44 2.97-3.33 2.97Zm17.63 16.2c4.05 0 6.53-2.47 6.53-5.85 0-3.6-2.97-5.04-5.53-6.03-1.31-.54-1.94-.81-1.94-1.49 0-.58.45-1.04 1.44-1.04 1.17 0 2.25.63 2.79 1.31l2.88-3.24c-1.35-1.35-3.56-2.39-6.07-2.39-4.1 0-6.71 2.7-6.71 5.76 0 3.6 3.6 4.81 5.67 5.58 1.62.63 2.16 1.08 2.16 1.71 0 .72-.63 1.12-1.58 1.12-.95 0-2.2-.36-3.01-1.89l-4.23 2.11c1.08 2.81 4.41 4.34 7.6 4.34Z"/><path stroke="#9ABEFF" stroke-width="5" d="M96 140.27c24.45 0 44.27-19.82 44.27-44.27 0-24.45-19.82-44.27-44.27-44.27-24.45 0-44.27 19.82-44.27 44.27 0 24.45 19.82 44.27 44.27 44.27Z"/></g><defs><clipPath id="a"><path fill="#fff" d="M0 0h192v192H0z"/></clipPath></defs></svg>

<?xml version="1.0" encoding="UTF-8" standalone="no"?>
<svg
   width="192"
   height="192"
   viewBox="0 0 192 192"
   fill="none"
   version="1.1"
   id="svg15"
   sodipodi:docname="adobe_ps_camera.svg"
   inkscape:export-filename="adobe_ps_camera.png"
   inkscape:export-xdpi="96"
   inkscape:export-ydpi="96"
   inkscape:version="1.2 (dc2aedaf03, 2022-05-15)"
   xmlns:inkscape="http://www.inkscape.org/namespaces/inkscape"
   xmlns:sodipodi="http://sodipodi.sourceforge.net/DTD/sodipodi-0.dtd"
   xmlns="http://www.w3.org/2000/svg"
   xmlns:svg="http://www.w3.org/2000/svg">
  <sodipodi:namedview
     id="namedview17"
     pagecolor="#505050"
     bordercolor="#eeeeee"
     borderopacity="1"
     inkscape:showpageshadow="0"
     inkscape:pageopacity="0"
     inkscape:pagecheckerboard="0"
     inkscape:deskcolor="#505050"
     showgrid="false"
     inkscape:zoom="2.4583333"
     inkscape:cx="96"
     inkscape:cy="58.169492"
     inkscape:window-width="1884"
     inkscape:window-height="1052"
     inkscape:window-x="36"
     inkscape:window-y="0"
     inkscape:window-maximized="1"
     inkscape:current-layer="svg15" />
  <g
     clip-path="url(#clip0)"
     id="g8">
    <path
       d="M30 25H162C164.76 25 167 27.24 167 30V162C167 164.76 164.76 167 162 167H30C27.24 167 25 164.76 25 162V30C25 27.24 27.24 25 30 25Z"
       fill="#4A4A4A"
       stroke="#9ABEFF"
       stroke-width="10"
       id="path2" />
    <path
       d="M92.02 82.44H80.55V109.44H86.49V98.51H92.02C96.56 98.51 100.08 95.13 100.08 90.59C100.08 86.08 96.57 82.44 92.02 82.44ZM91.0801 93.6H86.49V87.66H91.0801C92.9701 87.66 94.4101 88.87 94.4101 90.63C94.4101 92.43 92.9701 93.6 91.0801 93.6ZM108.71 109.8C112.76 109.8 115.24 107.33 115.24 103.95C115.24 100.35 112.27 98.91 109.71 97.92C108.4 97.38 107.77 97.11 107.77 96.43C107.77 95.85 108.22 95.39 109.21 95.39C110.38 95.39 111.46 96.02 112 96.7L114.88 93.46C113.53 92.11 111.32 91.07 108.81 91.07C104.71 91.07 102.1 93.77 102.1 96.83C102.1 100.43 105.7 101.64 107.77 102.41C109.39 103.04 109.93 103.49 109.93 104.12C109.93 104.84 109.3 105.24 108.35 105.24C107.4 105.24 106.15 104.88 105.34 103.35L101.11 105.46C102.19 108.27 105.52 109.8 108.71 109.8Z"
       fill="#9ABEFF"
       id="path4" />
    <path
       d="M96 140.27C120.45 140.27 140.27 120.45 140.27 96C140.27 71.5503 120.45 51.73 96 51.73C71.5503 51.73 51.73 71.5503 51.73 96C51.73 120.45 71.5503 140.27 96 140.27Z"
       stroke="#9ABEFF"
       stroke-width="5"
       id="path6" />
  </g>
  <defs
     id="defs13">
    <clipPath
       id="clip0">
      <rect
         width="192"
         height="192"
         fill="white"
         id="rect10" />
    </clipPath>
  </defs>
</svg>
